resources/icons/16px/align-center.svg

<svg xmlns="http://www.w3.org/2000/svg" viewBox="0 0 16 16">
  <path d="M4 4c-.55 0-1 .45-1 1s.45 1 1 1h8c.55 0 1-.45 1-1s-.45-1-1-1zM1 3h14c.55 0 1-.45 1-1s-.45-1-1-1H1c-.55 0-1 .45-1 1s.45 1 1 1m13 10H2c-.55 0-1 .45-1 1s.45 1 1 1h12c.55 0 1-.45 1-1s-.45-1-1-1m1-6H1c-.55 0-1 .45-1 1s.45 1 1 1h14c.55 0 1-.45 1-1s-.45-1-1-1m-5 5c.55 0 1-.45 1-1s-.45-1-1-1H6c-.55 0-1 .45-1 1s.45 1 1 1z"/>
</svg>

<?xml version="1.0" encoding="utf-8"?>
<!-- Generator: Adobe Illustrator 17.1.0, SVG Export Plug-In . SVG Version: 6.00 Build 0)  -->
<!DOCTYPE svg PUBLIC "-//W3C//DTD SVG 1.1//EN" "http://www.w3.org/Graphics/SVG/1.1/DTD/svg11.dtd">
<svg version="1.1" id="Layer_1" xmlns="http://www.w3.org/2000/svg" xmlns:xlink="http://www.w3.org/1999/xlink" x="0px" y="0px"
	 viewBox="0 0 16 16" enable-background="new 0 0 16 16" xml:space="preserve">
<g id="Rounded_Rectangle_5_4_">
	<g>
		<path fill-rule="evenodd" clip-rule="evenodd" d="M4,4C3.45,4,3,4.45,3,5c0,0.55,0.45,1,1,1h8c0.55,0,1-0.45,1-1
			c0-0.55-0.45-1-1-1H4z M1,3h14c0.55,0,1-0.45,1-1c0-0.55-0.45-1-1-1H1C0.45,1,0,1.45,0,2C0,2.55,0.45,3,1,3z M14,13H2
			c-0.55,0-1,0.45-1,1c0,0.55,0.45,1,1,1h12c0.55,0,1-0.45,1-1C15,13.45,14.55,13,14,13z M15,7H1C0.45,7,0,7.45,0,8
			c0,0.55,0.45,1,1,1h14c0.55,0,1-0.45,1-1C16,7.45,15.55,7,15,7z M10,12c0.55,0,1-0.45,1-1c0-0.55-0.45-1-1-1H6c-0.55,0-1,0.45-1,1
			c0,0.55,0.45,1,1,1H10z"/>
	</g>
</g>
</svg>
